icons/telescope-24.svg

<svg width="24" height="24" viewBox="0 0 24 24" xmlns="http://www.w3.org/2000/svg">
  <path fill-rule="evenodd" clip-rule="evenodd" d="M0.407612 15.1299C-0.112066 14.2298 0.144318 13.0817 0.997532 12.4881L17.0384 1.32917C17.9845 0.670995 19.2897 0.946595 19.8889 1.9311L22.7158 6.57539C23.3327 7.58886 22.9368 8.91345 21.8649 9.42213L4.10271 17.8517C3.16115 18.2985 2.03428 17.9474 1.51318 17.0448L0.407612 15.1299ZM5.67149 11.0639L13.5132 5.60874L16.3697 10.3697L7.65774 14.5042L5.67149 11.0639ZM4.43576 11.9235L1.85413 13.7195C1.64082 13.8679 1.57673 14.1549 1.70665 14.3799L2.81221 16.2948C2.94249 16.5205 3.22421 16.6082 3.4596 16.4965L6.2982 15.1494L4.43576 11.9235ZM17.7313 9.72348L14.7474 4.75019L17.895 2.56053C18.1315 2.39599 18.4578 2.46488 18.6076 2.71101L21.4345 7.35531C21.5887 7.60867 21.4897 7.93982 21.2218 8.06699L17.7313 9.72348Z"/>
  <path d="M17.1548 22.8704C17.5035 22.6469 17.605 22.183 17.3814 21.8343L13.3814 15.5954C13.1802 15.2816 12.779 15.1632 12.4396 15.3174L9.68963 16.5674C9.55976 16.6265 9.44943 16.7213 9.37157 16.8408L6.12162 21.8297C5.89553 22.1768 5.9936 22.6414 6.34068 22.8675C6.68775 23.0936 7.15239 22.9956 7.37848 22.6485L10.5092 17.8426L11.0197 17.6106V23.2502C11.0197 23.6644 11.3554 24.0002 11.7697 24.0002C12.1839 24.0002 12.5197 23.6644 12.5197 23.2502V17.0305L16.1186 22.6438C16.3422 22.9925 16.8061 23.094 17.1548 22.8704Z"/>
</svg>

<svg xmlns="http://www.w3.org/2000/svg" width="24" height="24" viewBox="0 0 24 24"><path fill-rule="evenodd" d="M.408 15.13a2 2 0 01.59-2.642L17.038 1.33a2 2 0 012.85.602l2.828 4.644a2 2 0 01-.851 2.847l-17.762 8.43a2 2 0 01-2.59-.807L.408 15.13zm5.263-4.066l7.842-5.455 2.857 4.76-8.712 4.135-1.987-3.44zm-1.235.86L1.854 13.72a.5.5 0 00-.147.66l1.105 1.915a.5.5 0 00.648.201l2.838-1.347-1.862-3.225zm13.295-2.2L14.747 4.75l3.148-2.19a.5.5 0 01.713.151l2.826 4.644a.5.5 0 01-.212.712l-3.49 1.656z"/><path d="M17.155 22.87a.75.75 0 00.226-1.036l-4-6.239a.75.75 0 00-.941-.278l-2.75 1.25a.75.75 0 00-.318.274l-3.25 4.989a.75.75 0 001.256.819l3.131-4.806.51-.232v5.64a.75.75 0 101.5 0v-6.22l3.6 5.613a.75.75 0 001.036.226z"/></svg>
